public/img/annie-burgess.svg

<?xml version="1.0" encoding="UTF-8"?><svg fill="none" height="640" viewBox="0 0 452 64" width="4520" xmlns="http://www.w3.org/2000/svg"><g fill="#000"><path d="m17.8759 2.13999h9.24l17.226 46.86001h-9.372l-4.356-11.682h-16.368l-4.29004 11.682h-9.371998zm11.088 28.77601-6.468-19.338-6.732 19.338z"/><path d="m80.7656 49h-8.844v-19.404c0-2.772-.484-4.796-1.452-6.072s-2.31-1.914-4.026-1.914c-1.188 0-2.398.308-3.63.924-1.188.616-2.266 1.474-3.234 2.574-.968 1.056-1.672 2.288-2.112 3.696v20.196h-8.844v-34.584h7.986v6.402c1.276-2.156 3.124-3.85 5.544-5.082 2.42-1.276 5.148-1.914 8.184-1.914 2.156 0 3.916.396 5.28 1.188 1.364.748 2.42 1.782 3.168 3.102.748 1.276 1.254 2.728 1.518 4.356.308 1.628.462 3.278.462 4.95z"/><path d="m120.598 49h-8.844v-19.404c0-2.772-.484-4.796-1.452-6.072s-2.31-1.914-4.026-1.914c-1.188 0-2.398.308-3.63.924-1.188.616-2.266 1.474-3.2344 2.574-.968 1.056-1.672 2.288-2.112 3.696v20.196h-8.844v-34.584h7.986v6.402c1.276-2.156 3.124-3.85 5.5444-5.082 2.42-1.276 5.148-1.914 8.184-1.914 2.156 0 3.916.396 5.28 1.188 1.364.748 2.42 1.782 3.168 3.102.748 1.276 1.254 2.728 1.518 4.356.308 1.628.462 3.278.462 4.95z"/><path d="m128.288 9.59799v-8.777998h8.844v8.777998zm0 39.40201v-34.584h8.844v34.584z"/><path d="m161.148 49.66c-3.74 0-6.974-.814-9.702-2.442-2.684-1.628-4.774-3.784-6.27-6.468-1.496-2.728-2.244-5.676-2.244-8.844 0-3.256.726-6.248 2.178-8.976 1.496-2.772 3.608-4.972 6.336-6.6 2.728-1.672 5.984-2.508 9.768-2.508s7.018.836 9.702 2.508c2.684 1.628 4.73 3.806 6.138 6.534 1.452 2.684 2.178 5.588 2.178 8.712 0 1.144-.066 2.134-.198 2.97h-26.73c.22 2.684 1.21 4.796 2.97 6.336 1.804 1.54 3.872 2.31 6.204 2.31 1.76 0 3.41-.418 4.95-1.254 1.584-.88 2.662-2.024 3.234-3.432l7.59 2.112c-1.276 2.64-3.322 4.818-6.138 6.534-2.816 1.672-6.138 2.508-9.966 2.508zm-9.042-20.724h18.084c-.264-2.596-1.254-4.686-2.97-6.27-1.672-1.628-3.718-2.442-6.138-2.442-2.376 0-4.422.814-6.138 2.442-1.672 1.584-2.618 3.674-2.838 6.27z"/><path d="m239.085 36.922c0 2.64-.682 4.862-2.046 6.666-1.364 1.76-3.212 3.102-5.544 4.026-2.288.924-4.796 1.386-7.524 1.386h-22.638v-46.86001h25.08c2.2 0 4.092.594 5.676 1.782 1.584 1.144 2.816 2.64 3.696 4.488.88 1.84801 1.32 3.74001 1.32 5.67601 0 2.288-.572 4.444-1.716 6.468-1.144 1.98-2.816 3.454-5.016 4.422 2.684.792 4.796 2.222 6.336 4.29 1.584 2.068 2.376 4.62 2.376 7.656zm-28.644-26.99401v11.81401h12.144c1.496 0 2.794-.528 3.894-1.584s1.65-2.508 1.65-4.356c0-1.76-.506-3.168-1.518-4.224-.968-1.1-2.178-1.65001-3.63-1.65001zm19.47 25.27801c0-1.716-.528-3.19-1.584-4.422s-2.354-1.848-3.894-1.848h-13.992v12.342h13.53c1.672 0 3.08-.594 4.224-1.782s1.716-2.618 1.716-4.29z"/><path d="m244.876 36.064v-21.648h8.844v19.734c0 5.324 1.914 7.986 5.742 7.986 1.716 0 3.366-.506 4.95-1.518 1.628-1.056 2.948-2.64 3.96-4.752v-21.45h8.844v24.684c0 .968.154 1.65.462 2.046.308.352.858.572 1.65.66v7.194c-.88.176-1.628.286-2.244.33-.572.044-1.1.066-1.584.066-1.584 0-2.882-.352-3.894-1.056-.968-.748-1.54-1.76-1.716-3.036l-.198-2.772c-1.54 2.376-3.52 4.158-5.94 5.346s-5.082 1.782-7.986 1.782c-3.564 0-6.27-1.144-8.118-3.432-1.848-2.332-2.772-5.72-2.772-10.164z"/><path d="m306.596 22.072c-2.684 0-5.082.528-7.194 1.584-2.112 1.012-3.63 2.486-4.554 4.422v20.922h-8.844v-34.584h8.118v7.392c1.188-2.376 2.728-4.246 4.62-5.61 1.936-1.364 3.96-2.112 6.072-2.244.924 0 1.518.022 1.782.066z"/><path d="m324.736 49.198c-3.08 0-5.786-.792-8.118-2.376s-4.158-3.696-5.478-6.336c-1.32-2.684-1.98-5.61-1.98-8.778 0-3.344.682-6.358 2.046-9.042 1.364-2.728 3.256-4.884 5.676-6.468s5.214-2.376 8.382-2.376c2.684 0 5.038.616 7.062 1.848 2.024 1.188 3.696 2.794 5.016 4.818v-6.072h7.722v32.934c0 3.432-.836 6.358-2.508 8.778-1.628 2.464-3.894 4.334-6.798 5.61-2.904 1.32-6.204 1.98-9.9 1.98-3.784 0-6.974-.638-9.57-1.914-2.552-1.232-4.752-2.992-6.6-5.28l4.818-4.686c1.32 1.628 2.97 2.904 4.95 3.828 2.024.924 4.158 1.386 6.402 1.386 1.848 0 3.542-.352 5.082-1.056 1.584-.66 2.86-1.716 3.828-3.168.968-1.408 1.452-3.234 1.452-5.478v-4.356c-1.144 1.98-2.772 3.52-4.884 4.62-2.068 1.056-4.268 1.584-6.6 1.584zm2.97-7.062c1.936 0 3.674-.572 5.214-1.716 1.584-1.144 2.684-2.508 3.3-4.092v-8.25c-.792-2.024-2.046-3.652-3.762-4.884-1.672-1.232-3.432-1.848-5.28-1.848-1.804 0-3.388.506-4.752 1.518-1.32 1.012-2.354 2.332-3.102 3.96-.748 1.584-1.122 3.3-1.122 5.148 0 1.892.418 3.608 1.254 5.148s1.958 2.772 3.366 3.696c1.452.88 3.08 1.32 4.884 1.32z"/><path d="m369.074 49.66c-3.74 0-6.974-.814-9.702-2.442-2.684-1.628-4.774-3.784-6.27-6.468-1.496-2.728-2.244-5.676-2.244-8.844 0-3.256.726-6.248 2.178-8.976 1.496-2.772 3.608-4.972 6.336-6.6 2.728-1.672 5.984-2.508 9.768-2.508s7.018.836 9.702 2.508c2.684 1.628 4.73 3.806 6.138 6.534 1.452 2.684 2.178 5.588 2.178 8.712 0 1.144-.066 2.134-.198 2.97h-26.73c.22 2.684 1.21 4.796 2.97 6.336 1.804 1.54 3.872 2.31 6.204 2.31 1.76 0 3.41-.418 4.95-1.254 1.584-.88 2.662-2.024 3.234-3.432l7.59 2.112c-1.276 2.64-3.322 4.818-6.138 6.534-2.816 1.672-6.138 2.508-9.966 2.508zm-9.042-20.724h18.084c-.264-2.596-1.254-4.686-2.97-6.27-1.672-1.628-3.718-2.442-6.138-2.442-2.376 0-4.422.814-6.138 2.442-1.672 1.584-2.618 3.674-2.838 6.27z"/><path d="m405.283 49.66c-2.948 0-5.764-.484-8.448-1.452s-4.994-2.398-6.93-4.29l3.168-5.742c2.068 1.672 4.092 2.904 6.072 3.696s3.916 1.188 5.808 1.188c1.716 0 3.081-.308 4.093-.924 1.056-.616 1.583-1.54 1.583-2.772 0-1.276-.638-2.134-1.914-2.574-1.276-.484-3.058-1.078-5.346-1.782-2.552-.792-4.685-1.606-6.402-2.442-1.716-.836-3.014-1.848-3.894-3.036-.836-1.188-1.254-2.728-1.254-4.62 0-3.388 1.276-6.094 3.828-8.118s5.94-3.036 10.164-3.036c2.464 0 4.796.396 6.996 1.188 2.201.748 4.202 1.98 6.006 3.696l-3.564 5.61c-3.388-2.64-6.666-3.96-9.834-3.96-1.407 0-2.661.264-3.761.792-1.056.528-1.585 1.452-1.585 2.772 0 1.232.507 2.112 1.518 2.64 1.056.528 2.64 1.1 4.752 1.716 2.728.836 5.039 1.65 6.931 2.442 1.936.792 3.388 1.804 4.355 3.036 1.012 1.232 1.518 2.904 1.518 5.016 0 3.432-1.254 6.116-3.761 8.052-2.508 1.936-5.875 2.904-10.099 2.904z"/><path d="m437.897 49.66c-2.948 0-5.764-.484-8.448-1.452s-4.994-2.398-6.93-4.29l3.168-5.742c2.068 1.672 4.092 2.904 6.072 3.696s3.916 1.188 5.808 1.188c1.716 0 3.08-.308 4.092-.924 1.056-.616 1.584-1.54 1.584-2.772 0-1.276-.638-2.134-1.914-2.574-1.276-.484-3.058-1.078-5.346-1.782-2.552-.792-4.686-1.606-6.402-2.442s-3.014-1.848-3.894-3.036c-.836-1.188-1.254-2.728-1.254-4.62 0-3.388 1.276-6.094 3.828-8.118s5.94-3.036 10.164-3.036c2.464 0 4.796.396 6.996 1.188 2.2.748 4.202 1.98 6.006 3.696l-3.564 5.61c-3.388-2.64-6.666-3.96-9.834-3.96-1.408 0-2.662.264-3.762.792-1.056.528-1.584 1.452-1.584 2.772 0 1.232.506 2.112 1.518 2.64 1.056.528 2.64 1.1 4.752 1.716 2.728.836 5.038 1.65 6.93 2.442 1.936.792 3.388 1.804 4.356 3.036 1.012 1.232 1.518 2.904 1.518 5.016 0 3.432-1.254 6.116-3.762 8.052s-5.874 2.904-10.098 2.904z"/></g></svg>

<svg width="4520" height="640" viewBox="0 0 452 64" fill="none" xmlns="http://www.w3.org/2000/svg">
<path d="M17.8759 2.13999H27.1159L44.3419 49H34.9699L30.6139 37.318H14.2459L9.95586 49H0.583862L17.8759 2.13999ZM28.9639 30.916L22.4959 11.578L15.7639 30.916H28.9639Z" fill="black"/>
<path d="M80.7656 49H71.9216V29.596C71.9216 26.824 71.4376 24.8 70.4696 23.524C69.5016 22.248 68.1596 21.61 66.4436 21.61C65.2556 21.61 64.0456 21.918 62.8136 22.534C61.6256 23.15 60.5476 24.008 59.5796 25.108C58.6116 26.164 57.9076 27.396 57.4676 28.804V49H48.6236V14.416H56.6096V20.818C57.8856 18.662 59.7336 16.968 62.1536 15.736C64.5736 14.46 67.3016 13.822 70.3376 13.822C72.4936 13.822 74.2536 14.218 75.6176 15.01C76.9816 15.758 78.0376 16.792 78.7856 18.112C79.5336 19.388 80.0396 20.84 80.3036 22.468C80.6116 24.096 80.7656 25.746 80.7656 27.418V49Z" fill="black"/>
<path d="M120.598 49H111.754V29.596C111.754 26.824 111.27 24.8 110.302 23.524C109.334 22.248 107.992 21.61 106.276 21.61C105.088 21.61 103.878 21.918 102.646 22.534C101.458 23.15 100.38 24.008 99.4116 25.108C98.4436 26.164 97.7396 27.396 97.2996 28.804V49H88.4556V14.416H96.4416V20.818C97.7176 18.662 99.5656 16.968 101.986 15.736C104.406 14.46 107.134 13.822 110.17 13.822C112.326 13.822 114.086 14.218 115.45 15.01C116.814 15.758 117.87 16.792 118.618 18.112C119.366 19.388 119.872 20.84 120.136 22.468C120.444 24.096 120.598 25.746 120.598 27.418V49Z" fill="black"/>
<path d="M128.288 9.59799V0.819992H137.132V9.59799H128.288ZM128.288 49V14.416H137.132V49H128.288Z" fill="black"/>
<path d="M161.148 49.66C157.408 49.66 154.174 48.846 151.446 47.218C148.762 45.59 146.672 43.434 145.176 40.75C143.68 38.022 142.932 35.074 142.932 31.906C142.932 28.65 143.658 25.658 145.11 22.93C146.606 20.158 148.718 17.958 151.446 16.33C154.174 14.658 157.43 13.822 161.214 13.822C164.998 13.822 168.232 14.658 170.916 16.33C173.6 17.958 175.646 20.136 177.054 22.864C178.506 25.548 179.232 28.452 179.232 31.576C179.232 32.72 179.166 33.71 179.034 34.546H152.304C152.524 37.23 153.514 39.342 155.274 40.882C157.078 42.422 159.146 43.192 161.478 43.192C163.238 43.192 164.888 42.774 166.428 41.938C168.012 41.058 169.09 39.914 169.662 38.506L177.252 40.618C175.976 43.258 173.93 45.436 171.114 47.152C168.298 48.824 164.976 49.66 161.148 49.66ZM152.106 28.936H170.19C169.926 26.34 168.936 24.25 167.22 22.666C165.548 21.038 163.502 20.224 161.082 20.224C158.706 20.224 156.66 21.038 154.944 22.666C153.272 24.25 152.326 26.34 152.106 28.936Z" fill="black"/>
<path d="M239.085 36.922C239.085 39.562 238.403 41.784 237.039 43.588C235.675 45.348 233.827 46.69 231.495 47.614C229.207 48.538 226.699 49 223.971 49H201.333V2.13999H226.413C228.613 2.13999 230.505 2.73399 232.089 3.92199C233.673 5.06599 234.905 6.56199 235.785 8.40999C236.665 10.258 237.105 12.15 237.105 14.086C237.105 16.374 236.533 18.53 235.389 20.554C234.245 22.534 232.573 24.008 230.373 24.976C233.057 25.768 235.169 27.198 236.709 29.266C238.293 31.334 239.085 33.886 239.085 36.922ZM210.441 9.92799V21.742H222.585C224.081 21.742 225.379 21.214 226.479 20.158C227.579 19.102 228.129 17.65 228.129 15.802C228.129 14.042 227.623 12.634 226.611 11.578C225.643 10.478 224.433 9.92799 222.981 9.92799H210.441ZM229.911 35.206C229.911 33.49 229.383 32.016 228.327 30.784C227.271 29.552 225.973 28.936 224.433 28.936H210.441V41.278H223.971C225.643 41.278 227.051 40.684 228.195 39.496C229.339 38.308 229.911 36.878 229.911 35.206Z" fill="black"/>
<path d="M244.876 36.064V14.416H253.72V34.15C253.72 39.474 255.634 42.136 259.462 42.136C261.178 42.136 262.828 41.63 264.412 40.618C266.04 39.562 267.36 37.978 268.372 35.866V14.416H277.216V39.1C277.216 40.068 277.37 40.75 277.678 41.146C277.986 41.498 278.536 41.718 279.328 41.806V49C278.448 49.176 277.7 49.286 277.084 49.33C276.512 49.374 275.984 49.396 275.5 49.396C273.916 49.396 272.618 49.044 271.606 48.34C270.638 47.592 270.066 46.58 269.89 45.304L269.692 42.532C268.152 44.908 266.172 46.69 263.752 47.878C261.332 49.066 258.67 49.66 255.766 49.66C252.202 49.66 249.496 48.516 247.648 46.228C245.8 43.896 244.876 40.508 244.876 36.064Z" fill="black"/>
<path d="M306.596 22.072C303.912 22.072 301.514 22.6 299.402 23.656C297.29 24.668 295.772 26.142 294.848 28.078V49H286.004V14.416H294.122V21.808C295.31 19.432 296.85 17.562 298.742 16.198C300.678 14.834 302.702 14.086 304.814 13.954C305.738 13.954 306.332 13.976 306.596 14.02V22.072Z" fill="black"/>
<path d="M324.736 49.198C321.656 49.198 318.95 48.406 316.618 46.822C314.286 45.238 312.46 43.126 311.14 40.486C309.82 37.802 309.16 34.876 309.16 31.708C309.16 28.364 309.842 25.35 311.206 22.666C312.57 19.938 314.462 17.782 316.882 16.198C319.302 14.614 322.096 13.822 325.264 13.822C327.948 13.822 330.302 14.438 332.326 15.67C334.35 16.858 336.022 18.464 337.342 20.488V14.416H345.064V47.35C345.064 50.782 344.228 53.708 342.556 56.128C340.928 58.592 338.662 60.462 335.758 61.738C332.854 63.058 329.554 63.718 325.858 63.718C322.074 63.718 318.884 63.08 316.288 61.804C313.736 60.572 311.536 58.812 309.688 56.524L314.506 51.838C315.826 53.466 317.476 54.742 319.456 55.666C321.48 56.59 323.614 57.052 325.858 57.052C327.706 57.052 329.4 56.7 330.94 55.996C332.524 55.336 333.8 54.28 334.768 52.828C335.736 51.42 336.22 49.594 336.22 47.35V42.994C335.076 44.974 333.448 46.514 331.336 47.614C329.268 48.67 327.068 49.198 324.736 49.198ZM327.706 42.136C329.642 42.136 331.38 41.564 332.92 40.42C334.504 39.276 335.604 37.912 336.22 36.328V28.078C335.428 26.054 334.174 24.426 332.458 23.194C330.786 21.962 329.026 21.346 327.178 21.346C325.374 21.346 323.79 21.852 322.426 22.864C321.106 23.876 320.072 25.196 319.324 26.824C318.576 28.408 318.202 30.124 318.202 31.972C318.202 33.864 318.62 35.58 319.456 37.12C320.292 38.66 321.414 39.892 322.822 40.816C324.274 41.696 325.902 42.136 327.706 42.136Z" fill="black"/>
<path d="M369.074 49.66C365.334 49.66 362.1 48.846 359.372 47.218C356.688 45.59 354.598 43.434 353.102 40.75C351.606 38.022 350.858 35.074 350.858 31.906C350.858 28.65 351.584 25.658 353.036 22.93C354.532 20.158 356.644 17.958 359.372 16.33C362.1 14.658 365.356 13.822 369.14 13.822C372.924 13.822 376.158 14.658 378.842 16.33C381.526 17.958 383.572 20.136 384.98 22.864C386.432 25.548 387.158 28.452 387.158 31.576C387.158 32.72 387.092 33.71 386.96 34.546H360.23C360.45 37.23 361.44 39.342 363.2 40.882C365.004 42.422 367.072 43.192 369.404 43.192C371.164 43.192 372.814 42.774 374.354 41.938C375.938 41.058 377.016 39.914 377.588 38.506L385.178 40.618C383.902 43.258 381.856 45.436 379.04 47.152C376.224 48.824 372.902 49.66 369.074 49.66ZM360.032 28.936H378.116C377.852 26.34 376.862 24.25 375.146 22.666C373.474 21.038 371.428 20.224 369.008 20.224C366.632 20.224 364.586 21.038 362.87 22.666C361.198 24.25 360.252 26.34 360.032 28.936Z" fill="black"/>
<path d="M405.283 49.66C402.335 49.66 399.519 49.176 396.835 48.208C394.151 47.24 391.841 45.81 389.905 43.918L393.073 38.176C395.141 39.848 397.165 41.08 399.145 41.872C401.125 42.664 403.061 43.06 404.953 43.06C406.669 43.06 408.034 42.752 409.046 42.136C410.102 41.52 410.629 40.596 410.629 39.364C410.629 38.088 409.991 37.23 408.715 36.79C407.439 36.306 405.657 35.712 403.369 35.008C400.817 34.216 398.684 33.402 396.967 32.566C395.251 31.73 393.953 30.718 393.073 29.53C392.237 28.342 391.819 26.802 391.819 24.91C391.819 21.522 393.095 18.816 395.647 16.792C398.199 14.768 401.587 13.756 405.811 13.756C408.275 13.756 410.607 14.152 412.807 14.944C415.008 15.692 417.009 16.924 418.813 18.64L415.249 24.25C411.861 21.61 408.583 20.29 405.415 20.29C404.008 20.29 402.754 20.554 401.654 21.082C400.598 21.61 400.069 22.534 400.069 23.854C400.069 25.086 400.576 25.966 401.587 26.494C402.643 27.022 404.227 27.594 406.339 28.21C409.067 29.046 411.378 29.86 413.27 30.652C415.206 31.444 416.658 32.456 417.625 33.688C418.637 34.92 419.143 36.592 419.143 38.704C419.143 42.136 417.889 44.82 415.382 46.756C412.874 48.692 409.507 49.66 405.283 49.66Z" fill="black"/>
<path d="M437.897 49.66C434.949 49.66 432.133 49.176 429.449 48.208C426.765 47.24 424.455 45.81 422.519 43.918L425.687 38.176C427.755 39.848 429.779 41.08 431.759 41.872C433.739 42.664 435.675 43.06 437.567 43.06C439.283 43.06 440.647 42.752 441.659 42.136C442.715 41.52 443.243 40.596 443.243 39.364C443.243 38.088 442.605 37.23 441.329 36.79C440.053 36.306 438.271 35.712 435.983 35.008C433.431 34.216 431.297 33.402 429.581 32.566C427.865 31.73 426.567 30.718 425.687 29.53C424.851 28.342 424.433 26.802 424.433 24.91C424.433 21.522 425.709 18.816 428.261 16.792C430.813 14.768 434.201 13.756 438.425 13.756C440.889 13.756 443.221 14.152 445.421 14.944C447.621 15.692 449.623 16.924 451.427 18.64L447.863 24.25C444.475 21.61 441.197 20.29 438.029 20.29C436.621 20.29 435.367 20.554 434.267 21.082C433.211 21.61 432.683 22.534 432.683 23.854C432.683 25.086 433.189 25.966 434.201 26.494C435.257 27.022 436.841 27.594 438.953 28.21C441.681 29.046 443.991 29.86 445.883 30.652C447.819 31.444 449.271 32.456 450.239 33.688C451.251 34.92 451.757 36.592 451.757 38.704C451.757 42.136 450.503 44.82 447.995 46.756C445.487 48.692 442.121 49.66 437.897 49.66Z" fill="black"/>
</svg>
